src/assets/components/PoolPage/back-arrow.svg

<svg fill="none" height="14" viewBox="0 0 20 14" width="20" xmlns="http://www.w3.org/2000/svg"><g clip-rule="evenodd" fill="#77e3ef" fill-rule="evenodd"><path d="m.5 7c0-.27614.223858-.5.5-.5h18c.2761 0 .5.22386.5.5s-.2239.5-.5.5h-18c-.276142 0-.5-.22386-.5-.5z"/><path d="m7.35355.646447c.19527.195262.19527.511843 0 .707103l-5.64644 5.64645 5.64644 5.6464c.19527.1953.19527.5119 0 .7072-.19526.1952-.51184.1952-.7071 0l-6.000003-6.00005c-.195263-.19526-.195263-.51184 0-.7071l6.000003-6.000003c.19526-.195263.51184-.195263.7071 0z"/></g></svg>

<svg width="20" height="14" viewBox="0 0 20 14" fill="none" xmlns="http://www.w3.org/2000/svg">
<path fill-rule="evenodd" clip-rule="evenodd" d="M0.5 7C0.5 6.72386 0.723858 6.5 1 6.5H19C19.2761 6.5 19.5 6.72386 19.5 7C19.5 7.27614 19.2761 7.5 19 7.5H1C0.723858 7.5 0.5 7.27614 0.5 7Z" fill="#77E3EF"/>
<path fill-rule="evenodd" clip-rule="evenodd" d="M7.35355 0.646447C7.54882 0.841709 7.54882 1.15829 7.35355 1.35355L1.70711 7L7.35355 12.6464C7.54882 12.8417 7.54882 13.1583 7.35355 13.3536C7.15829 13.5488 6.84171 13.5488 6.64645 13.3536L0.646447 7.35355C0.451184 7.15829 0.451184 6.84171 0.646447 6.64645L6.64645 0.646447C6.84171 0.451184 7.15829 0.451184 7.35355 0.646447Z" fill="#77E3EF"/>
</svg>
